src/assets/icons/ftic/people-5.svg

<?xml version="1.0" encoding="UTF-8"?>
<svg width="50px" height="36px" viewBox="0 0 50 36" version="1.1" xmlns="http://www.w3.org/2000/svg" xmlns:xlink="http://www.w3.org/1999/xlink">
    <!-- Generator: Sketch 47.1 (45422) - http://www.bohemiancoding.com/sketch -->
    <title>Group 4</title>
    <desc>Created with Sketch.</desc>
    <defs>
        <ellipse id="path-1" cx="6" cy="3.51460674" rx="3.1125" ry="3.17078652"></ellipse>
        <path d="M8.925,9.16853933 C7.3125,9.16853933 6.5625,9.16853933 6.225,9.16853933 C6.225,9.16853933 6.1875,9.16853933 5.925,9.16853933 C5.55,9.16853933 4.8,9.16853933 3.15,9.16853933 C0.3375,9.16853933 0.3,12.2629213 0.3,12.2629213 L0.3,21.6988764 L2.4375,21.6988764 L2.4375,33.6561798 L5.925,33.6561798 L6.225,33.6561798 L9.6375,33.6561798 L9.6375,21.6988764 L11.7375,21.6988764 L11.7375,12.2629213 C11.7,12.2629213 11.7,9.16853933 8.925,9.16853933 Z" id="path-2"></path>
        <ellipse id="path-3" cx="6" cy="3.51460674" rx="3.1125" ry="3.17078652"></ellipse>
        <path d="M8.925,9.16853933 C7.3125,9.16853933 6.5625,9.16853933 6.225,9.16853933 C6.225,9.16853933 6.1875,9.16853933 5.925,9.16853933 C5.55,9.16853933 4.8,9.16853933 3.15,9.16853933 C0.3375,9.16853933 0.3,12.2629213 0.3,12.2629213 L0.3,21.6988764 L2.4375,21.6988764 L2.4375,33.6561798 L5.925,33.6561798 L6.225,33.6561798 L9.6375,33.6561798 L9.6375,21.6988764 L11.7375,21.6988764 L11.7375,12.2629213 C11.7,12.2629213 11.7,9.16853933 8.925,9.16853933 Z" id="path-4"></path>
        <circle id="path-5" cx="6" cy="3" r="3"></circle>
        <path d="M8.29508197,9 C6.7442623,9 6.02295082,9 5.69836066,9 C5.69836066,9 5.66229508,9 5.40983607,9 C5.04918033,9 4.32786885,9 2.74098361,9 C0.0360655738,9 0,12.0327613 0,12.0327613 L0,21.2808112 L2.0557377,21.2808112 L2.0557377,33 L5.40983607,33 L5.69836066,33 L8.98032787,33 L8.98032787,21.2808112 L11,21.2808112 L11,12.0327613 C10.9639344,12.0327613 10.9639344,9 8.29508197,9 Z" id="path-6"></path>
    </defs>
    <g id="DESIGNS" stroke="none" stroke-width="1" fill="none" fill-rule="evenodd">
        <g id="Home--aantal-Personen" transform="translate(-527.000000, -551.000000)" fill-rule="nonzero">
            <g id="5" transform="translate(504.000000, 525.000000)">
                <g id="Group-4" transform="translate(24.000000, 27.000000)">
                    <g id="Men-Copy-9" transform="translate(9.000000, 0.000000)" fill="#333E48">
                        <ellipse id="Oval" cx="6" cy="3.51460674" rx="3.1125" ry="3.17078652"></ellipse>
                        <path d="M8.925,9.16853933 C7.3125,9.16853933 6.5625,9.16853933 6.225,9.16853933 C6.225,9.16853933 6.1875,9.16853933 5.925,9.16853933 C5.55,9.16853933 4.8,9.16853933 3.15,9.16853933 C0.3375,9.16853933 0.3,12.2629213 0.3,12.2629213 L0.3,21.6988764 L2.4375,21.6988764 L2.4375,33.6561798 L5.925,33.6561798 L6.225,33.6561798 L9.6375,33.6561798 L9.6375,21.6988764 L11.7375,21.6988764 L11.7375,12.2629213 C11.7,12.2629213 11.7,9.16853933 8.925,9.16853933 Z" id="Combined-Shape"></path>
                    </g>
                    <g id="Men-Copy-9" transform="translate(27.000000, 0.000000)" fill="#333E48">
                        <ellipse id="Oval" cx="6" cy="3.51460674" rx="3.1125" ry="3.17078652"></ellipse>
                        <path d="M8.925,9.16853933 C7.3125,9.16853933 6.5625,9.16853933 6.225,9.16853933 C6.225,9.16853933 6.1875,9.16853933 5.925,9.16853933 C5.55,9.16853933 4.8,9.16853933 3.15,9.16853933 C0.3375,9.16853933 0.3,12.2629213 0.3,12.2629213 L0.3,21.6988764 L2.4375,21.6988764 L2.4375,33.6561798 L5.925,33.6561798 L6.225,33.6561798 L9.6375,33.6561798 L9.6375,21.6988764 L11.7375,21.6988764 L11.7375,12.2629213 C11.7,12.2629213 11.7,9.16853933 8.925,9.16853933 Z" id="Combined-Shape"></path>
                    </g>
                    <g id="Men-Copy-11" transform="translate(18.000000, 0.000000)">
                        <g id="Oval">
                            <use fill="#333E48" fill-rule="evenodd" xlink:href="#path-1"></use>
                            <ellipse stroke="#FFFFFF" stroke-width="0.8" cx="6" cy="3.51460674" rx="3.5125" ry="3.57078652"></ellipse>
                        </g>
                        <g id="Shape">
                            <use fill="#333E48" fill-rule="evenodd" xlink:href="#path-2"></use>
                            <path stroke="#FFFFFF" stroke-width="0.8" d="M12.0979622,11.8629213 L12.1375,11.8629213 L12.1375,22.0988764 L10.0375,22.0988764 L10.0375,34.0561798 L2.0375,34.0561798 L2.0375,22.0988764 L-0.1,22.0988764 L-0.1,21.6988764 L-0.0999706305,12.2580742 C-0.0985701967,12.1425148 -0.0840225673,11.953684 -0.0449472481,11.7148416 C0.0199085892,11.3184194 0.133005137,10.9212972 0.307826005,10.5466045 C0.821096273,9.44651497 1.75363589,8.76853933 3.15,8.76853933 L8.925,8.76853933 C10.3065523,8.76853933 11.2206174,9.44703201 11.7219718,10.5502372 C11.8966554,10.9346196 12.03938,11.5252886 12.0979622,11.8629213 Z"></path>
                        </g>
                    </g>
                    <g id="Men-Copy-11" transform="translate(36.000000, 0.000000)">
                        <g id="Oval">
                            <use fill="#333E48" fill-rule="evenodd" xlink:href="#path-3"></use>
                            <ellipse stroke="#FFFFFF" stroke-width="0.8" cx="6" cy="3.51460674" rx="3.5125" ry="3.57078652"></ellipse>
                        </g>
                        <g id="Shape">
                            <use fill="#333E48" fill-rule="evenodd" xlink:href="#path-4"></use>
                            <path stroke="#FFFFFF" stroke-width="0.8" d="M12.0979622,11.8629213 L12.1375,11.8629213 L12.1375,22.0988764 L10.0375,22.0988764 L10.0375,34.0561798 L2.0375,34.0561798 L2.0375,22.0988764 L-0.1,22.0988764 L-0.1,21.6988764 L-0.0999706305,12.2580742 C-0.0985701967,12.1425148 -0.0840225673,11.953684 -0.0449472481,11.7148416 C0.0199085892,11.3184194 0.133005137,10.9212972 0.307826005,10.5466045 C0.821096273,9.44651497 1.75363589,8.76853933 3.15,8.76853933 L8.925,8.76853933 C10.3065523,8.76853933 11.2206174,9.44703201 11.7219718,10.5502372 C11.8966554,10.9346196 12.03938,11.5252886 12.0979622,11.8629213 Z"></path>
                        </g>
                    </g>
                    <g id="Men-Copy-12">
                        <g id="Oval">
                            <use fill="#333E48" fill-rule="evenodd" xlink:href="#path-5"></use>
                            <circle stroke="#FFFFFF" stroke-width="0.8" cx="6" cy="3" r="3.4"></circle>
                        </g>
                        <g id="Shape">
                            <use fill="#333E48" fill-rule="evenodd" xlink:href="#path-6"></use>
                            <path stroke="#FFFFFF" stroke-width="0.8" d="M11.3606151,11.6327613 L11.4,11.6327613 L11.4,21.6808112 L9.38032787,21.6808112 L9.38032787,33.4 L1.6557377,33.4 L1.6557377,21.6808112 L-0.4,21.6808112 L-0.4,21.2808112 L-0.399971719,12.0280048 C-0.398624526,11.9147191 -0.384631113,11.7296189 -0.347043219,11.4954875 C-0.284643272,11.1068042 -0.175821912,10.7174081 -0.0075460832,10.3498665 C0.487661665,9.26825308 1.38963032,8.6 2.74098361,8.6 L8.29508197,8.6 C9.63229927,8.6 10.5164505,9.26880167 11.0001563,10.3534662 C11.1670115,10.7276232 11.3035153,11.3007213 11.3606151,11.6327613 Z"></path>
                        </g>
                    </g>
                </g>
            </g>
        </g>
    </g>
</svg>

<svg xmlns="http://www.w3.org/2000/svg" xmlns:xlink="http://www.w3.org/1999/xlink" viewBox="0 0 50 36"><defs><ellipse id="a" cx="6" cy="3.515" rx="3.112" ry="3.171"/><path id="b" d="M8.925 9.169H3.15C.337 9.169.3 12.263.3 12.263v9.436h2.138v11.957h7.199V21.7h2.1v-9.436c-.037 0-.037-3.094-2.812-3.094z"/><ellipse id="c" cx="6" cy="3.515" rx="3.112" ry="3.171"/><path id="d" d="M8.925 9.169H3.15C.337 9.169.3 12.263.3 12.263v9.436h2.138v11.957h7.199V21.7h2.1v-9.436c-.037 0-.037-3.094-2.812-3.094z"/><circle id="e" cx="6" cy="3" r="3"/><path id="f" d="M8.295 9H2.741C.036 9 0 12.033 0 12.033v9.248h2.056V33H8.98V21.28H11v-9.247c-.036 0-.036-3.033-2.705-3.033z"/></defs><g transform="translate(10 1)"><ellipse cx="6" cy="3.515" rx="3.112" ry="3.171"/><path d="M8.925 9.169H3.15C.337 9.169.3 12.263.3 12.263v9.436h2.138v11.957h7.199V21.7h2.1v-9.436c-.037 0-.037-3.094-2.812-3.094z"/></g><g transform="translate(28 1)"><ellipse cx="6" cy="3.515" rx="3.112" ry="3.171"/><path d="M8.925 9.169H3.15C.337 9.169.3 12.263.3 12.263v9.436h2.138v11.957h7.199V21.7h2.1v-9.436c-.037 0-.037-3.094-2.812-3.094z"/></g><g transform="translate(19 1)"><use xlink:href="#a"/><ellipse cx="6" cy="3.515" rx="3.513" ry="3.571"/></g><g transform="translate(19 1)"><use xlink:href="#b"/><path d="M12.098 11.863h.04v10.236h-2.1v11.957h-8V22.1H-.1v-9.84c.001-.116.016-.305.055-.544a4.47 4.47 0 0 1 .353-1.168C.821 9.448 1.754 8.77 3.15 8.77h5.775c1.382 0 2.296.678 2.797 1.781.175.385.317.975.376 1.313z"/></g><g transform="translate(37 1)"><use xlink:href="#c"/><ellipse cx="6" cy="3.515" rx="3.513" ry="3.571"/></g><g transform="translate(37 1)"><use xlink:href="#d"/><path d="M12.098 11.863h.04v10.236h-2.1v11.957h-8V22.1H-.1v-9.84c.001-.116.016-.305.055-.544a4.47 4.47 0 0 1 .353-1.168C.821 9.448 1.754 8.77 3.15 8.77h5.775c1.382 0 2.296.678 2.797 1.781.175.385.317.975.376 1.313z"/></g><g transform="translate(1 1)"><use xlink:href="#e"/><circle cx="6" cy="3" r="3.4"/></g><g transform="translate(1 1)"><use xlink:href="#f"/><path d="M11.36 11.633h.04V21.68H9.38V33.4H1.656V21.68H-.4v-9.651a3.75 3.75 0 0 1 .053-.533c.062-.388.171-.778.34-1.145C.487 9.268 1.39 8.6 2.74 8.6h5.554c1.337 0 2.221.669 2.705 1.753.167.375.304.948.36 1.28z"/></g></svg>
